X:1
L:1/8
Q:1/8=120
M:2/4
K:G
 d | Bd/B/ AB/A/ | GB d/^c/d | ed GA | Be ed | Bd/B/ AB/A/ | GB d/^c/d | ed ef | g2 g :| d | 
 ed Bd | ed B>d | ed GA | Be ed | Bd/B/ AB/A/ | GB d/^c/d | ed ef | g2 g :|
